build/documents/XMLOutline.svg

<svg xmlns="http://www.w3.org/2000/svg" fill="none" viewBox="0 0 24 24" focusable="false"><path d="M0 0H24V24H0z"/><path fill="#74767B" fill-rule="evenodd" d="M17.6499 4.6501L9.66766 4.6501C8.72878 4.6501 7.96766 5.41121 7.96766 6.35009L7.96766 16.3655C7.96766 17.3044 8.72878 18.0655 9.66767 18.0655L17.6499 18.0655C18.5888 18.0655 19.3499 17.3044 19.3499 16.3655L19.3499 6.3501C19.3499 5.41121 18.5888 4.6501 17.6499 4.6501ZM9.66766 3.3501C8.01081 3.3501 6.66766 4.69324 6.66766 6.35009L6.66766 16.3655C6.66766 18.0224 8.01081 19.3655 9.66767 19.3655L17.6499 19.3655C19.3068 19.3655 20.6499 18.0224 20.6499 16.3655L20.6499 6.3501C20.6499 4.69324 19.3068 3.3501 17.6499 3.3501L9.66766 3.3501ZM4.71299 8.70215C5.07197 8.70215 5.36299 8.99316 5.36299 9.35215L5.36299 18.8131C5.36299 19.8348 6.19126 20.6631 7.21299 20.6631L15.6563 20.6631C16.0153 20.6631 16.3063 20.9541 16.3063 21.3131C16.3063 21.6721 16.0153 21.9631 15.6563 21.9631L7.21299 21.9631C5.47329 21.9631 4.06299 20.5528 4.06299 18.8131L4.06299 9.35215C4.06299 8.99316 4.354 8.70215 4.71299 8.70215ZM11.6282 10.2275C11.8476 9.94332 11.7951 9.53513 11.511 9.31574C11.2268 9.09636 10.8186 9.14886 10.5992 9.433L9.43744 10.9378C9.2589 11.169 9.25658 11.491 9.43179 11.7248L10.5936 13.2752C10.8089 13.5624 11.2163 13.6208 11.5035 13.4055C11.7908 13.1902 11.8492 12.7828 11.6339 12.4956L10.7686 11.3409L11.6282 10.2275ZM15.8571 13.3998C15.573 13.1804 15.5205 12.7723 15.7399 12.4881L16.5995 11.3747L15.7342 10.22C15.5189 9.93273 15.5773 9.52533 15.8646 9.31006C16.1518 9.09478 16.5592 9.15314 16.7745 9.44042L17.9363 10.9908C18.1115 11.2246 18.1092 11.5465 17.9307 11.7778L16.7689 13.2826C16.5495 13.5667 16.1413 13.6192 15.8571 13.3998ZM14.7666 9.88271C14.8583 9.53565 14.6513 9.17993 14.3043 9.08818C13.9572 8.99644 13.6015 9.20342 13.5097 9.55048L12.6397 12.8417C12.548 13.1888 12.755 13.5445 13.102 13.6362C13.4491 13.728 13.8048 13.521 13.8966 13.1739L14.7666 9.88271Z"/></svg>

<svg xmlns="http://www.w3.org/2000/svg" fill="none" viewBox="0 0 24 24" focusable="false"><path fill="#74767B" fill-rule="evenodd" d="M17.64 4.65H9.66c-.94 0-1.7.76-1.7 1.7v10.01c0 .94.76 1.7 1.7 1.7h7.98c.94 0 1.7-.76 1.7-1.7V6.35c0-.94-.76-1.7-1.7-1.7m-7.98-1.3c-1.65 0-3 1.34-3 3v10.01c0 1.66 1.35 3 3 3h7.98c1.66 0 3-1.34 3-3V6.35c0-1.66-1.34-3-3-3zM4.71 8.7c.36 0 .65.29.65.65v9.46c0 1.02.83 1.85 1.85 1.85h8.44c.36 0 .65.29.65.65s-.29.65-.65.65H7.21a3.15 3.15 0 0 1-3.15-3.15V9.35c0-.36.29-.65.65-.65m6.91 1.52a.65.65 0 0 0-.11-.91.654.654 0 0 0-.92.12l-1.16 1.5c-.18.23-.18.56 0 .79l1.16 1.55a.651.651 0 0 0 1.04-.78l-.87-1.15zm4.23 3.17c-.28-.21-.33-.62-.12-.91l.86-1.11-.86-1.15c-.22-.29-.16-.7.13-.91.29-.22.69-.16.91.13l1.16 1.55c.18.23.17.55 0 .78l-1.17 1.51a.65.65 0 0 1-.91.11m-1.09-3.51a.65.65 0 0 0-.46-.8c-.35-.09-.7.12-.8.47l-.87 3.29a.652.652 0 0 0 1.26.33z"/></svg>
